themes/murray-tweet-index/assets/images/icon-parameters.svg

<svg xmlns="http://www.w3.org/2000/svg" viewBox="0 0 47 54"><defs><style>.a{fill:#fff;fill-rule:evenodd;}</style></defs><title>icon-parameters</title><path class="a" d="M40 22v32h7v-32h-7zm-8 32h7v-47h-7v47zm-8 0h7v-27h-7v27zm-8 0h7v-54h-7v54zm-8 0h7v-42h-7v42zm-8 0h7v-22h-7v22z"/></svg>

<svg xmlns="http://www.w3.org/2000/svg" viewBox="0 0 47 54"><defs><style>.a{fill:#fff;fill-rule:evenodd;}</style></defs><title>icon-parameters</title><path class="a" d="M40,22V54h7V22H40ZM32,54h7V7H32V54Zm-8,0h7V27H24V54Zm-8,0h7V0H16V54ZM8,54h7V12H8V54ZM0,54H7V32H0V54Z" transform="translate(0)"/></svg>
